; generated by PrusaSlicer 2.4.0+win64 on 2022-01-25 at 16:26:06 UTC

; 

; external perimeters extrusion width = 0.45mm
; perimeters extrusion width = 0.45mm
; infill extrusion width = 0.45mm
; solid infill extrusion width = 0.45mm
; top infill extrusion width = 0.40mm
; first layer extrusion width = 0.70mm

M107
M104 S200 ; set temperature
;TYPE:Custom
G28 ; home all axes
G1 Z5 F5000 ; lift nozzle
M109 S200 ; set temperature and wait for it to be reached
G21 ; set units to millimeters
G90 ; use absolute coordinates
M82 ; use absolute distances for extrusion
G92 E0
; Filament gcode
M107
;LAYER_CHANGE
;Z:0.35
;HEIGHT:0.35
G1 Z.35 F7800
G1 E-2 F2400
G92 E0
G1 X60.2 Y65.62 F7800
G1 E2 F2400
;TYPE:Skirt/Brim
;WIDTH:0.7
G1 F1800
G1 X61.953 Y64.141 E2.20854
G1 X64.105 Y63.348 E2.41708
G1 X65.285 Y63.242 E2.52479
G1 X115.285 Y63.242 E7.07127
G1 X117.544 Y63.639 E7.27982
G1 X119.532 Y64.782 E7.48836
G1 X121.011 Y66.535 E7.6969
G1 X121.804 Y68.687 E7.90544
G1 X121.91 Y69.867 E8.01315
G1 X121.91 Y119.867 E12.55963
G1 X121.513 Y122.126 E12.76817
G1 X120.369 Y124.114 E12.97672
G1 X118.617 Y125.593 E13.18526
G1 X116.465 Y126.386 E13.3938
G1 X115.285 Y126.492 E13.50151
G1 X65.285 Y126.492 E18.04799
G1 X63.026 Y126.095 E18.25653
G1 X61.038 Y124.951 E18.46507
G1 X59.559 Y123.199 E18.67362
G1 X58.766 Y121.046 E18.88216
G1 X58.66 Y119.867 E18.98987
G1 X58.66 Y69.867 E23.53635
G1 X59.057 Y67.608 E23.74489
G1 X60.17 Y65.672 E23.94797
G1 E21.94797 F2400
G92 E0
G1 X66.885 Y71.466 F7800
G1 E2 F2400
;TYPE:Perimeter
G1 F1800
G1 X113.685 Y71.466 E6.25555
G1 X113.685 Y118.267 E10.51109
G1 X66.885 Y118.267 E14.76664
G1 X66.885 Y71.526 E19.01673
G1 X66.26 Y71.526 F7800
G1 F1800
G1 X66.26 Y70.842 E19.079
G1 X114.31 Y70.842 E23.44819
G1 X114.31 Y118.892 E27.81738
G1 X66.26 Y118.892 E32.18656
G1 X66.26 Y71.586 E36.48802
G1 X65.635 Y70.217 F7800
;TYPE:External perimeter
G1 F1800
G1 X114.935 Y70.217 E40.97085
G1 X114.935 Y119.517 E45.45367
G1 X65.635 Y119.517 E49.9365
G1 X65.635 Y70.277 E54.41388
G1 X66.021 Y70.32 F7800
G1 E52.41388 F2400
G92 E0
G1 X112.232 Y71.654 F7800
G1 E2 F2400
;TYPE:Solid infill
;WIDTH:0.701244
G1 F1800
G1 X113.216 Y72.639 E2.12687
G1 X113.216 Y73.524 E2.20754
G1 X111.628 Y71.935 E2.41227
G1 X110.742 Y71.935 E2.49295
G1 X113.216 Y74.409 E2.81177
G1 X113.216 Y75.295 E2.89245
G1 X109.857 Y71.935 E3.32537
G1 X108.971 Y71.935 E3.40605
G1 X113.216 Y76.18 E3.95306
G1 X113.216 Y77.066 E4.03374
G1 X108.086 Y71.935 E4.69484
G1 X107.2 Y71.935 E4.77552
G1 X113.216 Y77.951 E5.55072
G1 X113.216 Y78.837 E5.6314
G1 X106.315 Y71.935 E6.5207
G1 X105.429 Y71.935 E6.60137
G1 X113.216 Y79.722 E7.60477
G1 X113.216 Y80.608 E7.68544
G1 X104.544 Y71.935 E8.80293
G1 X103.658 Y71.935 E8.88361
G1 X113.216 Y81.493 E10.11519
G1 X113.216 Y82.379 E10.19586
G1 X102.773 Y71.935 E11.54154
G1 X101.887 Y71.935 E11.62222
G1 X113.216 Y83.264 E13.08199
G1 X113.216 Y84.15 E13.16266
G1 X101.002 Y71.935 E14.73653
G1 X100.116 Y71.935 E14.81721
G1 X113.216 Y85.035 E16.50517
G1 X113.216 Y85.921 E16.58584
G1 X99.231 Y71.935 E18.3879
G1 X98.345 Y71.935 E18.46857
G1 X113.216 Y86.806 E20.38472
G1 X113.216 Y87.692 E20.4654
G1 X97.46 Y71.935 E22.49564
G1 X96.574 Y71.935 E22.57632
G1 X113.216 Y88.577 E24.72066
G1 X113.216 Y89.463 E24.80133
G1 X95.689 Y71.935 E27.05977
G1 X94.803 Y71.935 E27.14044
G1 X113.216 Y90.348 E29.51297
G1 X113.216 Y91.234 E29.59365
G1 X93.918 Y71.935 E32.08027
G1 X93.032 Y71.935 E32.16095
G1 X113.216 Y92.119 E34.76166
G1 X113.216 Y93.005 E34.84234
G1 X92.147 Y71.935 E37.55715
G1 X91.261 Y71.935 E37.63783
G1 X113.216 Y93.89 E40.46674
G1 X113.216 Y94.776 E40.54741
G1 X90.376 Y71.935 E43.49041
G1 X89.49 Y71.935 E43.57109
G1 X113.216 Y95.661 E46.62818
G1 X113.216 Y96.547 E46.70886
G1 X88.605 Y71.935 E49.88005
G1 X87.719 Y71.935 E49.96073
G1 X113.216 Y97.432 E53.24601
G1 X113.216 Y98.318 E53.32669
G1 X86.834 Y71.935 E56.72607
G1 X85.948 Y71.935 E56.80675
G1 X113.216 Y99.203 E60.32022
G1 X113.216 Y100.089 E60.4009
G1 X85.063 Y71.935 E64.02847
G1 X84.177 Y71.935 E64.10914
G1 X113.216 Y100.974 E67.85081
G1 X113.216 Y101.86 E67.93148
G1 X83.292 Y71.935 E71.78724
G1 X82.407 Y71.935 E71.86792
G1 X113.216 Y102.745 E75.83777
G1 X113.216 Y103.631 E75.91845
G1 X81.521 Y71.935 E80.00239
G1 X80.636 Y71.935 E80.08307
G1 X113.216 Y104.516 E84.28111
G1 X113.216 Y105.402 E84.36179
G1 X79.75 Y71.935 E88.67393
G1 X78.865 Y71.935 E88.7546
G1 X113.216 Y106.287 E93.18083
G1 X113.216 Y107.172 E93.26151
G1 X77.979 Y71.935 E97.80184
G1 X77.094 Y71.935 E97.88251
G1 X113.216 Y108.058 E102.53693
G1 X113.216 Y108.943 E102.61761
G1 X76.208 Y71.935 E107.38612
G1 X75.323 Y71.935 E107.4668
G1 X113.216 Y109.829 E112.34941
G1 X113.216 Y110.714 E112.43009
G1 X74.437 Y71.935 E117.42679
G1 X73.552 Y71.935 E117.50747
G1 X113.216 Y111.6 E122.61827
G1 X113.216 Y112.485 E122.69894
G1 X72.666 Y71.935 E127.92384
G1 X71.781 Y71.935 E128.00452
G1 X113.216 Y113.371 E133.3435
G1 X113.216 Y114.256 E133.42418
G1 X70.895 Y71.935 E138.87726
G1 X70.01 Y71.935 E138.95794
G1 X113.216 Y115.142 E144.52512
G1 X113.216 Y116.027 E144.60579
G1 X69.124 Y71.935 E150.28707
G1 X68.239 Y71.935 E150.36774
G1 X113.216 Y116.913 E156.16311
G1 X113.216 Y117.798 E156.24378
G1 X67.353 Y71.935 E162.15323
G1 X67.353 Y72.821 E162.23391
G1 X112.331 Y117.798 E168.02927
G1 X111.445 Y117.798 E168.10994
G1 X67.353 Y73.706 E173.7912
G1 X67.353 Y74.592 E173.87188
G1 X110.56 Y117.798 E179.43905
G1 X109.674 Y117.798 E179.51972
G1 X67.353 Y75.477 E184.97279
G1 X67.353 Y76.363 E185.05347
G1 X108.789 Y117.798 E190.39245
G1 X107.903 Y117.798 E190.47313
G1 X67.353 Y77.248 E195.69801
G1 X67.353 Y78.134 E195.77868
G1 X107.018 Y117.798 E200.88947
G1 X106.133 Y117.798 E200.97015
G1 X67.353 Y79.019 E205.96684
G1 X67.353 Y79.905 E206.04752
G1 X105.247 Y117.798 E210.93012
G1 X104.362 Y117.798 E211.01079
G1 X67.353 Y80.79 E215.7793
G1 X67.353 Y81.676 E215.85997
G1 X103.476 Y117.798 E220.51438
G1 X102.591 Y117.798 E220.59506
G1 X67.353 Y82.561 E225.13537
G1 X67.353 Y83.446 E225.21605
G1 X101.705 Y117.798 E229.64227
G1 X100.82 Y117.798 E229.72294
G1 X67.353 Y84.332 E234.03507
G1 X67.353 Y85.217 E234.11575
G1 X99.934 Y117.798 E238.31378
G1 X99.049 Y117.798 E238.39445
G1 X67.353 Y86.103 E242.47839
G1 X67.353 Y86.988 E242.55907
G1 X98.163 Y117.798 E246.52891
G1 X97.278 Y117.798 E246.60958
G1 X67.353 Y87.874 E250.46533
G1 X67.353 Y88.759 E250.54601
G1 X96.392 Y117.798 E254.28766
G1 X95.507 Y117.798 E254.36833
G1 X67.353 Y89.645 E257.99589
G1 X67.353 Y90.53 E258.07657
G1 X94.621 Y117.798 E261.59003
G1 X93.736 Y117.798 E261.67071
G1 X67.353 Y91.416 E265.07007
G1 X67.353 Y92.301 E265.15075
G1 X92.85 Y117.798 E268.43602
G1 X91.965 Y117.798 E268.5167
G1 X67.353 Y93.187 E271.68788
G1 X67.353 Y94.072 E271.76856
G1 X91.079 Y117.798 E274.82564
G1 X90.194 Y117.798 E274.90632
G1 X67.353 Y94.958 E277.84931
G1 X67.353 Y95.843 E277.92998
G1 X89.308 Y117.798 E280.75888
G1 X88.423 Y117.798 E280.83955
G1 X67.353 Y96.729 E283.55435
G1 X67.353 Y97.614 E283.63503
G1 X87.537 Y117.798 E286.23574
G1 X86.652 Y117.798 E286.31641
G1 X67.353 Y98.5 E288.80302
G1 X67.353 Y99.385 E288.8837
G1 X85.766 Y117.798 E291.25622
G1 X84.881 Y117.798 E291.33689
G1 X67.353 Y100.271 E293.59531
G1 X67.353 Y101.156 E293.67599
G1 X83.995 Y117.798 E295.82032
G1 X83.11 Y117.798 E295.90099
G1 X67.353 Y102.042 E297.93123
G1 X67.353 Y102.927 E298.0119
G1 X82.224 Y117.798 E299.92804
G1 X81.339 Y117.798 E300.00872
G1 X67.353 Y103.813 E301.81076
G1 X67.353 Y104.698 E301.89144
G1 X80.453 Y117.798 E303.57938
G1 X79.568 Y117.798 E303.66006
G1 X67.353 Y105.584 E305.23391
G1 X67.353 Y106.469 E305.31459
G1 X78.682 Y117.798 E306.77435
G1 X77.797 Y117.798 E306.85503
G1 X67.353 Y107.355 E308.20069
G1 X67.353 Y108.24 E308.28137
G1 X76.911 Y117.798 E309.51294
G1 X76.026 Y117.798 E309.59361
G1 X67.353 Y109.126 E310.71109
G1 X67.353 Y110.011 E310.79177
G1 X75.141 Y117.798 E311.79515
G1 X74.255 Y117.798 E311.87582
G1 X67.353 Y110.897 E312.76511
G1 X67.353 Y111.782 E312.84579
G1 X73.37 Y117.798 E313.62098
G1 X72.484 Y117.798 E313.70165
G1 X67.353 Y112.668 E314.36275
G1 X67.353 Y113.553 E314.44343
G1 X71.599 Y117.798 E314.99043
G1 X70.713 Y117.798 E315.0711
G1 X67.353 Y114.438 E315.50401
G1 X67.353 Y115.324 E315.58469
G1 X69.828 Y117.798 E315.9035
G1 X68.942 Y117.798 E315.98418
G1 X67.353 Y116.209 E316.18889
G1 X67.353 Y117.095 E316.26957
G1 X68.338 Y118.079 E316.39643
;LAYER_CHANGE
;Z:0.65
;HEIGHT:0.3
G1 Z.65 F7800
G1 E314.39643 F2400
G92 E0
G1 X67.081 Y70.863 F7800
G1 E2 F2400
;TYPE:Perimeter
;WIDTH:0.45
G1 F3600
G1 X114.289 Y70.863 E4.27052
G1 X114.289 Y118.87 E6.57952
G1 X66.281 Y118.87 E8.88852
G1 X66.281 Y70.863 E11.19752
G1 X67.021 Y70.863 E11.23311
G1 X66.295 Y70.477 F7800
G1 F3600
G1 X114.674 Y70.477 E13.55996
G1 X114.674 Y119.256 E15.90605
G1 X65.895 Y119.256 E18.25214
G1 X65.895 Y70.477 E20.59824
G1 X66.235 Y70.477 E20.61459
G1 X65.51 Y70.217 F7800
;TYPE:External perimeter
G1 F1800
G1 X65.51 Y70.092 E20.6206
G1 X115.06 Y70.092 E23.00379
G1 X115.06 Y119.642 E25.38697
G1 X65.51 Y119.642 E27.77016
G1 X65.51 Y70.277 E30.14445
G1 X65.598 Y70.128 F7800
G1 E28.14445 F2400
G92 E0
G1 X114.173 Y117.974 F7800
G1 E2 F2400
;TYPE:Solid infill
;WIDTH:0.450782
G1 F1200
G1 X113.565 Y118.581 E2.04142
G1 X113.019 Y118.581 E2.06775
G1 X113.999 Y117.601 E2.13459
G1 X113.999 Y117.054 E2.16092
G1 X112.472 Y118.581 E2.265
G1 X111.926 Y118.581 E2.29133
G1 X113.999 Y116.508 E2.43266
G1 X113.999 Y115.961 E2.45899
G1 X111.379 Y118.581 E2.63756
G1 X110.833 Y118.581 E2.6639
G1 X113.999 Y115.415 E2.87971
G1 X113.999 Y114.868 E2.90604
G1 X110.287 Y118.581 E3.1591
G1 X109.74 Y118.581 E3.18543
G1 X113.999 Y114.322 E3.47573
G1 X113.999 Y113.775 E3.50207
G1 X109.194 Y118.581 E3.82962
G1 X108.647 Y118.581 E3.85595
G1 X113.999 Y113.229 E4.22074
G1 X113.999 Y112.683 E4.24708
G1 X108.101 Y118.581 E4.64911
G1 X107.554 Y118.581 E4.67545
G1 X113.999 Y112.136 E5.11472
G1 X113.999 Y111.59 E5.14106
G1 X107.008 Y118.581 E5.61758
G1 X106.461 Y118.581 E5.64392
G1 X113.999 Y111.043 E6.15768
G1 X113.999 Y110.497 E6.18402
G1 X105.915 Y118.581 E6.73503
G1 X105.369 Y118.581 E6.76137
G1 X113.999 Y109.95 E7.34962
G1 X113.999 Y109.404 E7.37596
G1 X104.822 Y118.581 E8.00146
G1 X104.276 Y118.581 E8.0278
G1 X113.999 Y108.857 E8.69054
G1 X113.999 Y108.311 E8.71688
G1 X103.729 Y118.581 E9.41687
G1 X103.183 Y118.581 E9.4432
G1 X113.999 Y107.765 E10.18044
G1 X113.999 Y107.218 E10.20677
G1 X102.636 Y118.581 E10.98125
G1 X102.09 Y118.581 E11.00759
G1 X113.999 Y106.672 E11.81931
G1 X113.999 Y106.125 E11.84564
G1 X101.543 Y118.581 E12.69461
G1 X100.997 Y118.581 E12.72095
G1 X113.999 Y105.579 E13.60716
G1 X113.999 Y105.032 E13.63349
G1 X100.45 Y118.581 E14.55695
G1 X99.904 Y118.581 E14.58329
G1 X113.999 Y104.486 E15.54399
G1 X113.999 Y103.939 E15.57032
G1 X99.358 Y118.581 E16.56827
G1 X98.811 Y118.581 E16.5946
G1 X113.999 Y103.393 E17.62979
G1 X113.999 Y102.846 E17.65613
G1 X98.265 Y118.581 E18.72856
G1 X97.718 Y118.581 E18.7549
G1 X113.999 Y102.3 E19.86458
G1 X113.999 Y101.754 E19.89091
G1 X97.172 Y118.581 E21.03784
G1 X96.625 Y118.581 E21.06417
G1 X113.999 Y101.207 E22.24834
G1 X113.999 Y100.661 E22.27468
G1 X96.079 Y118.581 E23.49609
G1 X95.532 Y118.581 E23.52242
G1 X113.999 Y100.114 E24.78108
G1 X113.999 Y99.568 E24.80742
G1 X94.986 Y118.581 E26.10332
G1 X94.439 Y118.581 E26.12965
G1 X113.999 Y99.021 E27.4628
G1 X113.999 Y98.475 E27.48913
G1 X93.893 Y118.581 E28.85952
G1 X93.347 Y118.581 E28.88586
G1 X113.999 Y97.928 E30.29349
G1 X113.999 Y97.382 E30.31983
G1 X92.8 Y118.581 E31.76471
G1 X92.254 Y118.581 E31.79104
G1 X113.999 Y96.835 E33.27317
G1 X113.999 Y96.289 E33.2995
G1 X91.707 Y118.581 E34.81887
G1 X91.161 Y118.581 E34.84521
G1 X113.999 Y95.743 E36.40182
G1 X113.999 Y95.196 E36.42815
G1 X90.614 Y118.581 E38.02201
G1 X90.068 Y118.581 E38.04835
G1 X113.999 Y94.65 E39.67945
G1 X113.999 Y94.103 E39.70578
G1 X89.521 Y118.581 E41.37413
G1 X88.975 Y118.581 E41.40046
G1 X113.999 Y93.557 E43.10605
G1 X113.999 Y93.01 E43.13239
G1 X88.428 Y118.581 E44.87522
G1 X87.882 Y118.581 E44.90156
G1 X113.999 Y92.464 E46.68164
G1 X113.999 Y91.917 E46.70798
G1 X87.336 Y118.581 E48.5253
G1 X86.789 Y118.581 E48.55163
G1 X113.999 Y91.371 E50.4062
G1 X113.999 Y90.824 E50.43254
G1 X86.243 Y118.581 E52.32435
G1 X85.696 Y118.581 E52.35069
G1 X113.999 Y90.278 E54.27974
G1 X113.999 Y89.732 E54.30608
G1 X85.15 Y118.581 E56.27238
G1 X84.603 Y118.581 E56.29872
G1 X113.999 Y89.185 E58.30226
G1 X113.999 Y88.639 E58.3286
G1 X84.057 Y118.581 E60.36939
G1 X83.51 Y118.581 E60.39572
G1 X113.999 Y88.092 E62.47376
G1 X113.999 Y87.546 E62.50009
G1 X82.964 Y118.581 E64.61537
G1 X82.417 Y118.581 E64.64171
G1 X113.999 Y86.999 E66.79423
G1 X113.999 Y86.453 E66.82057
G1 X81.871 Y118.581 E69.01034
G1 X81.325 Y118.581 E69.03667
G1 X113.999 Y85.906 E71.26368
G1 X113.999 Y85.36 E71.29002
G1 X80.778 Y118.581 E73.55428
G1 X80.232 Y118.581 E73.58061
G1 X113.999 Y84.813 E75.88211
G1 X113.999 Y84.267 E75.90845
G1 X79.685 Y118.581 E78.2472
G1 X79.139 Y118.581 E78.27353
G1 X113.999 Y83.721 E80.64952
G1 X113.999 Y83.174 E80.67586
G1 X78.592 Y118.581 E83.08909
G1 X78.046 Y118.581 E83.11543
G1 X113.999 Y82.628 E85.56591
G1 X113.999 Y82.081 E85.59224
G1 X77.499 Y118.581 E88.07997
G1 X76.953 Y118.581 E88.1063
G1 X113.999 Y81.535 E90.63127
G1 X113.999 Y80.988 E90.65761
G1 X76.406 Y118.581 E93.21982
G1 X75.86 Y118.581 E93.24616
G1 X113.999 Y80.442 E95.84561
G1 X113.999 Y79.895 E95.87195
G1 X75.314 Y118.581 E98.50865
G1 X74.767 Y118.581 E98.53499
G1 X113.999 Y79.349 E101.20893
G1 X113.999 Y78.802 E101.23527
G1 X74.221 Y118.581 E103.94646
G1 X73.674 Y118.581 E103.9728
G1 X113.999 Y78.256 E106.72123
G1 X113.999 Y77.71 E106.74757
G1 X73.128 Y118.581 E109.53325
G1 X72.581 Y118.581 E109.55958
G1 X113.999 Y77.163 E112.38251
G1 X113.999 Y76.617 E112.40884
G1 X72.035 Y118.581 E115.26901
G1 X71.488 Y118.581 E115.29535
G1 X113.999 Y76.07 E118.19276
G1 X113.999 Y75.524 E118.2191
G1 X70.942 Y118.581 E121.15375
G1 X70.395 Y118.581 E121.18009
G1 X113.999 Y74.977 E124.15199
G1 X113.999 Y74.431 E124.17833
G1 X69.849 Y118.581 E127.18747
G1 X69.303 Y118.581 E127.21381
G1 X113.999 Y73.884 E130.2602
G1 X113.999 Y73.338 E130.28654
G1 X68.756 Y118.581 E133.37017
G1 X68.21 Y118.581 E133.39651
G1 X113.999 Y72.791 E136.51739
G1 X113.999 Y72.245 E136.54372
G1 X67.663 Y118.581 E139.70185
G1 X67.117 Y118.581 E139.72818
G1 X113.999 Y71.699 E142.92355
G1 X113.999 Y71.152 E142.94989
G1 X66.57 Y118.581 E146.1825
G1 X66.57 Y118.035 E146.20883
G1 X113.453 Y71.152 E149.4042
G1 X112.907 Y71.152 E149.43054
G1 X66.57 Y117.488 E152.58866
G1 X66.57 Y116.942 E152.61499
G1 X112.36 Y71.152 E155.73587
G1 X111.814 Y71.152 E155.76221
G1 X66.57 Y116.395 E158.84584
G1 X66.57 Y115.849 E158.87218
G1 X111.267 Y71.152 E161.91857
G1 X110.721 Y71.152 E161.9449
G1 X66.57 Y115.303 E164.95405
G1 X66.57 Y114.756 E164.98038
G1 X110.174 Y71.152 E167.95228
G1 X109.628 Y71.152 E167.97862
G1 X66.57 Y114.21 E170.91328
G1 X66.57 Y113.663 E170.93961
G1 X109.081 Y71.152 E173.83702
G1 X108.535 Y71.152 E173.86336
G1 X66.57 Y113.117 E176.72352
G1 X66.57 Y112.57 E176.74986
G1 X107.988 Y71.152 E179.57278
G1 X107.442 Y71.152 E179.59912
G1 X66.57 Y112.024 E182.3848
G1 X66.57 Y111.477 E182.41113
G1 X106.896 Y71.152 E185.15957
G1 X106.349 Y71.152 E185.1859
G1 X66.57 Y110.931 E187.89709
G1 X66.57 Y110.384 E187.92343
G1 X105.803 Y71.152 E190.59737
G1 X105.256 Y71.152 E190.62371
G1 X66.57 Y109.838 E193.26041
G1 X66.57 Y109.292 E193.28674
G1 X104.71 Y71.152 E195.8862
G1 X104.163 Y71.152 E195.91253
G1 X66.57 Y108.745 E198.47474
G1 X66.57 Y108.199 E198.50108
G1 X103.617 Y71.152 E201.02605
G1 X103.07 Y71.152 E201.05238
G1 X66.57 Y107.652 E203.5401
G1 X66.57 Y107.106 E203.56644
G1 X102.524 Y71.152 E206.01692
G1 X101.977 Y71.152 E206.04325
G1 X66.57 Y106.559 E208.45649
G1 X66.57 Y106.013 E208.48282
G1 X101.431 Y71.152 E210.85881
G1 X100.885 Y71.152 E210.88515
G1 X66.57 Y105.466 E213.22389
G1 X66.57 Y104.92 E213.25023
G1 X100.338 Y71.152 E215.55173
G1 X99.792 Y71.152 E215.57806
G1 X66.57 Y104.373 E217.84232
G1 X66.57 Y103.827 E217.86865
G1 X99.245 Y71.152 E220.09566
G1 X98.699 Y71.152 E220.122
